packages/match-logos/mono/svg/blackboard.svg

<svg fill="none" height="22" viewBox="0 0 157 22" width="157" xmlns="http://www.w3.org/2000/svg" xmlns:xlink="http://www.w3.org/1999/xlink"><clipPath id="a"><path d="m0 0h156.64v22h-156.64z"/></clipPath><g clip-path="url(#a)" fill="#1f304c"><path d="m0 .879993h9.328c1.9874-.099471 3.9381.561267 5.456 1.847997.4549.44689.8142.98153 1.0563 1.57148.242.58996.3617 1.22293.3517 1.86052.0204.98657-.2532 1.95689-.786 2.78745-.5328.83057-1.3008 1.48376-2.206 1.87656 2.464.88 4.136 2.2 4.136 5.016v.088c0 3.696-3.08 5.72-7.656 5.72h-9.68zm12.496 5.895997c0-1.584-1.32-2.64-3.696-2.64h-5.192v5.544h5.016c2.288-.088 3.872-.968 3.872-2.904zm-3.08 5.98401h-5.808v5.72h6.072c2.464 0 4.048-.968 4.048-2.816v-.088c-.088-1.848-1.496-2.816-4.312-2.816z"/><path d="m23.232 0h-3.608v21.648h3.608z"/><path d="m25.4319 17.16c0-3.432 2.64-5.104 6.424-5.104 1.4392-.0257 2.8709.2129 4.224.704v-.44c0-2.2-1.408-3.432-3.872-3.432-1.5491-.01212-3.0817.31844-4.488.968l-.968-2.816c1.8449-.85716 3.8622-1.27868 5.896-1.232 2.376 0 4.048.616 5.192 1.76.5862.65523 1.036 1.42071 1.3231 2.25172.2871.83098.4057 1.71088.3489 2.58828v9.24h-3.52v-1.936c-.5963.7501-1.3616 1.3484-2.2334 1.7461s-1.8253.5834-2.7826.5419c-2.904 0-5.544-1.76-5.544-4.84zm10.736-1.144v-1.056c-1.1249-.422-2.3186-.6309-3.52-.616-2.288 0-3.696.968-3.696 2.64v.088c0 1.496 1.32 2.376 3.08 2.376 2.376-.088 4.136-1.496 4.136-3.432z"/><path d="m41.448 13.904c-.0188-1.084.1794-2.1609.5829-3.1672.4035-1.00636 1.0042-1.92182 1.7668-2.69257.7625-.77074 1.6715-1.3812 2.6735-1.79546 1.0019-.41427 2.0766-.62396 3.1608-.61676 1.1805-.05147 2.3571.16756 3.44.64036 1.0828.4728 2.0433 1.18687 2.808 2.08764l-2.288 2.37599c-.4911-.6002-1.1085-1.08479-1.8081-1.4194-.6996-.3346-1.4644-.51098-2.2399-.51659-.6316.0236-1.2521.17271-1.8254.43864-.5734.26592-1.088.64334-1.5139 1.11025-.426.4669-.7547 1.0139-.967 1.6092s-.304 1.2268-.2697 1.8579v.088c0 2.816 1.936 5.016 4.664 5.016.7722-.0238 1.531-.2083 2.2279-.5416.697-.3334 1.3168-.8082 1.8201-1.3944l2.2 2.112c-.7702.9514-1.7522 1.7095-2.8676 2.2138-1.1155.5042-2.3333.7406-3.5564.6902-1.0594.0013-2.1085-.208-3.0864-.6155s-1.8651-1.0052-2.6101-1.7584-1.333-1.6469-1.7298-2.6292c-.3968-.9822-.5945-2.0336-.5817-3.0929z"/><path d="m57.8159 0h3.608v12.936l6.512-6.952h4.4l-6.248 6.424 6.424 9.24h-4.224l-4.664-6.776-2.2 2.288v4.488h-3.608z"/><path d="m78.056 19.184v2.464h-3.608v-21.648h3.608v8.624c.5815-.89346 1.3772-1.62722 2.3148-2.13444s1.9872-.77178 3.0532-.76956c3.696 0 7.304 2.904 7.304 8.096v.088c0 5.192-3.52 8.096-7.304 8.096-1.0616.0332-2.1138-.2086-3.0543-.702-.9406-.4934-1.7376-1.2217-2.3137-2.114zm8.888-5.368c0-3.08-2.024-5.016-4.488-5.016s-4.576 2.024-4.576 5.016v.088c0 2.992 2.112 5.016 4.576 5.016s4.488-2.024 4.488-5.104z"/><path d="m91.8719 13.904c-.0059-1.0954.2068-2.181.6259-3.1931.4192-1.01205 1.0361-1.93026 1.8148-2.70073.7787-.77048 1.7034-1.37771 2.7198-1.78608 1.0165-.40838 2.1043-.60968 3.1996-.59209 1.084-.02931 2.162.15812 3.172.55129 1.011.39318 1.932.98417 2.711 1.7383s1.399 1.65621 1.824 2.65331c.426.9971.647 2.0691.653 3.1531v.088c.012 2.2172-.858 4.3482-2.418 5.9243-1.559 1.5761-3.681 2.468-5.898 2.4797-2.2173.0117-4.3483-.8579-5.9244-2.4175-1.576-1.5595-2.468-3.6813-2.4797-5.8985zm13.1121 0c.028-.6557-.076-1.3103-.305-1.925-.23-.6147-.581-1.1769-1.033-1.6531-.452-.47623-.994-.85673-1.596-1.11887-.602-.26213-1.25-.40056-1.906-.40703-.6473-.00227-1.2882.12796-1.8832.38267-.5951.25471-1.1317.62851-1.5768 1.09843-.4452.4698-.7895 1.0259-1.0117 1.6338s-.3176 1.2549-.2804 1.9011v.088c-.0222.6426.0835 1.2833.3111 1.8846.2276.6014.5726 1.1515 1.0148 1.6182.4423.4668.9729.841 1.5611 1.1008s1.2222.4 1.8651.4124c.654.0118 1.303-.1112 1.907-.3614.605-.2502 1.151-.6222 1.605-1.0929.454-.4706.806-1.0297 1.035-1.6425.228-.6128.328-1.2661.293-1.9192z"/><path d="m109.736 17.16c0-3.432 2.64-5.104 6.424-5.104 1.439-.0257 2.871.2129 4.224.704v-.44c0-2.2-1.408-3.432-3.872-3.432-1.549-.01212-3.082.31844-4.488.968l-.968-2.816c1.845-.85716 3.862-1.27868 5.896-1.232 2.376 0 4.048.616 5.192 1.76.586.65523 1.036 1.42071 1.323 2.25172.287.83098.406 1.71088.349 2.58828v9.24h-3.52v-1.936c-.628.7356-1.412 1.3225-2.295 1.7182-.882.3957-1.842.5903-2.809.5698-2.816 0-5.456-1.76-5.456-4.84zm10.736-1.144v-1.056c-1.125-.422-2.319-.6309-3.52-.616-2.288 0-3.696.968-3.696 2.64v.088c0 1.496 1.32 2.376 3.08 2.376 2.376-.088 4.136-1.496 4.136-3.432z"/><path d="m126.72 5.984h3.608v3.52c.968-2.376 2.816-3.96 5.544-3.872v3.784h-.176c-3.168 0-5.368 2.024-5.368 6.16v5.984h-3.608z"/><path d="m136.224 13.816c0-5.192 3.52-8.184 7.304-8.184 1.049-.01468 2.086.22599 3.021.70124s1.741 1.17083 2.347 2.02676v-8.36h3.608v21.648h-3.608v-2.64c-.581.8935-1.377 1.6272-2.315 2.1344-.937.5073-1.987.7718-3.053.7696-3.696.088-7.304-2.904-7.304-8.096zm12.672 0c0-3.08-2.112-5.016-4.576-5.016s-4.488 1.936-4.488 5.016v.088c0 2.992 2.112 5.016 4.488 5.016 1.284-.0704 2.487-.6476 3.345-1.6047s1.301-2.2158 1.231-3.4993z"/><path d="m156.64 1.40799c-.001.19217-.041.38215-.118.55838-.076.17624-.188.33504-.328.46675s-.305.23357-.486.29939c-.18.06582-.372.09422-.564.08348-.384.00723-.755-.13605-1.035-.39918s-.445-.62523-.461-1.00882c0-.39677.158-.77728.438-1.057834.281-.2805549.661-.4381687 1.058-.4381687s.777.1576138 1.058.4381687c.28.280554.438.661064.438 1.057834zm-2.64 0c-.005.15155.021.3025.077.44351s.14.26908.247.3763c.107.10723.235.19132.376.24708s.292.082.444.07711c.145-.0045.287-.03782.419-.09801.132-.06018.251-.14603.349-.25253s.174-.23151.224-.36774c.049-.13624.071-.28096.064-.42572.007-.14476-.015-.28949-.064-.42572-.05-.136234-.126-.26125-.224-.367748-.098-.106499-.217-.192347-.349-.252532-.132-.060184-.274-.093501-.419-.098003-.302.004542-.59.126529-.804.340094s-.336.501919-.34.803909zm.88.792h-.352v-1.408003c.342-.117333.714-.117333 1.056 0 .176.088.176.176.176.352003 0 .176-.088.264-.264.352.176.088.264.176.264.352s.088.264.088.352h-.352c-.088-.088-.088-.176-.088-.352.004-.03569 0-.07188-.012-.10585-.011-.03396-.031-.06481-.056-.09022-.025-.02542-.056-.04474-.09-.0565-.034-.01177-.07-.01568-.106-.01143h-.176zm0-.792h.176c.176 0 .352-.088.352-.176-.004-.06866-.033-.13341-.082-.18204-.049-.04864-.113-.07779-.182-.081963h-.176z"/></g></svg>

<svg width="157" height="22" viewBox="0 0 157 22" fill="none" xmlns="http://www.w3.org/2000/svg">
<g clip-path="url(#clip0)">
<path d="M0 0.879993H9.328C11.3154 0.780522 13.2661 1.44126 14.784 2.72799C15.2389 3.17488 15.5982 3.70952 15.8403 4.29947C16.0823 4.88943 16.202 5.5224 16.192 6.15999C16.2124 7.14656 15.9388 8.11688 15.406 8.94744C14.8732 9.77801 14.1052 10.4312 13.2 10.824C15.664 11.704 17.336 13.024 17.336 15.84V15.928C17.336 19.624 14.256 21.648 9.68 21.648H0V0.879993ZM12.496 6.77599C12.496 5.19199 11.176 4.13599 8.8 4.13599H3.608V9.67999H8.624C10.912 9.59199 12.496 8.71199 12.496 6.77599ZM9.416 12.76H3.608V18.48H9.68C12.144 18.48 13.728 17.512 13.728 15.664V15.576C13.64 13.728 12.232 12.76 9.416 12.76Z" fill="#1F304C"/>
<path d="M23.232 0H19.624V21.648H23.232V0Z" fill="#1F304C"/>
<path d="M25.4319 17.16C25.4319 13.728 28.0719 12.056 31.8559 12.056C33.2951 12.0303 34.7268 12.2689 36.0799 12.76V12.32C36.0799 10.12 34.6719 8.888 32.2079 8.888C30.6588 8.87588 29.1262 9.20644 27.7199 9.856L26.7519 7.04C28.5968 6.18284 30.6141 5.76132 32.6479 5.808C35.0239 5.808 36.6959 6.424 37.8399 7.568C38.4261 8.22323 38.8759 8.98871 39.163 9.81972C39.4501 10.6507 39.5687 11.5306 39.5119 12.408V21.648H35.9919V19.712C35.3956 20.4621 34.6303 21.0604 33.7585 21.4581C32.8867 21.8558 31.9332 22.0415 30.9759 22C28.0719 22 25.4319 20.24 25.4319 17.16ZM36.1679 16.016V14.96C35.043 14.538 33.8493 14.3291 32.6479 14.344C30.3599 14.344 28.9519 15.312 28.9519 16.984V17.072C28.9519 18.568 30.2719 19.448 32.0319 19.448C34.4079 19.36 36.1679 17.952 36.1679 16.016Z" fill="#1F304C"/>
<path d="M41.448 13.904C41.4292 12.82 41.6274 11.7431 42.0309 10.7368C42.4344 9.73044 43.0351 8.81498 43.7977 8.04423C44.5602 7.27349 45.4692 6.66303 46.4712 6.24877C47.4731 5.8345 48.5478 5.62481 49.632 5.63201C50.8125 5.58054 51.9891 5.79957 53.072 6.27237C54.1548 6.74517 55.1153 7.45924 55.88 8.36001L53.592 10.736C53.1009 10.1358 52.4835 9.65121 51.7839 9.3166C51.0843 8.982 50.3195 8.80562 49.544 8.80001C48.9124 8.82361 48.2919 8.97272 47.7186 9.23865C47.1452 9.50457 46.6306 9.88199 46.2047 10.3489C45.7787 10.8158 45.45 11.3628 45.2377 11.9581C45.0254 12.5534 44.9337 13.1849 44.968 13.816V13.904C44.968 16.72 46.904 18.92 49.632 18.92C50.4042 18.8962 51.163 18.7117 51.8599 18.3784C52.5569 18.045 53.1767 17.5702 53.68 16.984L55.88 19.096C55.1098 20.0474 54.1278 20.8055 53.0124 21.3098C51.8969 21.814 50.6791 22.0504 49.456 22C48.3966 22.0013 47.3475 21.792 46.3696 21.3845C45.3917 20.977 44.5045 20.3793 43.7595 19.6261C43.0145 18.8729 42.4265 17.9792 42.0297 16.9969C41.6329 16.0147 41.4352 14.9633 41.448 13.904Z" fill="#1F304C"/>
<path d="M57.8159 0H61.4239V12.936L67.9359 5.984H72.3359L66.0879 12.408L72.5119 21.648H68.2879L63.6239 14.872L61.4239 17.16V21.648H57.8159V0Z" fill="#1F304C"/>
<path d="M78.056 19.184V21.648H74.448V0H78.056V8.624C78.6375 7.73054 79.4332 6.99678 80.3708 6.48956C81.3084 5.98234 82.358 5.71778 83.424 5.72C87.12 5.72 90.728 8.624 90.728 13.816V13.904C90.728 19.096 87.208 22 83.424 22C82.3624 22.0332 81.3102 21.7914 80.3697 21.298C79.4291 20.8046 78.6321 20.0763 78.056 19.184ZM86.944 13.816C86.944 10.736 84.92 8.8 82.456 8.8C79.992 8.8 77.88 10.824 77.88 13.816V13.904C77.88 16.896 79.992 18.92 82.456 18.92C84.92 18.92 86.944 16.896 86.944 13.816Z" fill="#1F304C"/>
<path d="M91.8719 13.904C91.866 12.8086 92.0787 11.723 92.4978 10.7109C92.917 9.69885 93.5339 8.78064 94.3126 8.01017C95.0913 7.23969 96.016 6.63246 97.0324 6.22409C98.0489 5.81571 99.1367 5.61441 100.232 5.632C101.316 5.60269 102.394 5.79012 103.404 6.18329C104.415 6.57647 105.336 7.16746 106.115 7.92159C106.894 8.67572 107.514 9.5778 107.939 10.5749C108.365 11.572 108.586 12.644 108.592 13.728V13.816C108.604 16.0332 107.734 18.1642 106.174 19.7403C104.615 21.3164 102.493 22.2083 100.276 22.22C98.0587 22.2317 95.9277 21.3621 94.3516 19.8025C92.7756 18.243 91.8836 16.1212 91.8719 13.904ZM104.984 13.904C105.012 13.2483 104.908 12.5937 104.679 11.979C104.449 11.3643 104.098 10.8021 103.646 10.3259C103.194 9.84967 102.652 9.46917 102.05 9.20703C101.448 8.9449 100.8 8.80647 100.144 8.8C99.4967 8.79773 98.8558 8.92796 98.2608 9.18267C97.6657 9.43738 97.1291 9.81118 96.684 10.2811C96.2388 10.7509 95.8945 11.307 95.6723 11.9149C95.4501 12.5228 95.3547 13.1698 95.3919 13.816V13.904C95.3697 14.5466 95.4754 15.1873 95.703 15.7886C95.9306 16.39 96.2756 16.9401 96.7178 17.4068C97.1601 17.8736 97.6907 18.2478 98.2789 18.5076C98.8671 18.7674 99.5011 18.9076 100.144 18.92C100.798 18.9318 101.447 18.8088 102.051 18.5586C102.656 18.3084 103.202 17.9364 103.656 17.4657C104.11 16.9951 104.462 16.436 104.691 15.8232C104.919 15.2104 105.019 14.5571 104.984 13.904Z" fill="#1F304C"/>
<path d="M109.736 17.16C109.736 13.728 112.376 12.056 116.16 12.056C117.599 12.0303 119.031 12.2689 120.384 12.76V12.32C120.384 10.12 118.976 8.888 116.512 8.888C114.963 8.87588 113.43 9.20644 112.024 9.856L111.056 7.04C112.901 6.18284 114.918 5.76132 116.952 5.808C119.328 5.808 121 6.424 122.144 7.568C122.73 8.22323 123.18 8.98871 123.467 9.81972C123.754 10.6507 123.873 11.5306 123.816 12.408V21.648H120.296V19.712C119.668 20.4476 118.884 21.0345 118.001 21.4302C117.119 21.8259 116.159 22.0205 115.192 22C112.376 22 109.736 20.24 109.736 17.16ZM120.472 16.016V14.96C119.347 14.538 118.153 14.3291 116.952 14.344C114.664 14.344 113.256 15.312 113.256 16.984V17.072C113.256 18.568 114.576 19.448 116.336 19.448C118.712 19.36 120.472 17.952 120.472 16.016Z" fill="#1F304C"/>
<path d="M126.72 5.984H130.328V9.504C131.296 7.128 133.144 5.544 135.872 5.632V9.416H135.696C132.528 9.416 130.328 11.44 130.328 15.576V21.56H126.72V5.984Z" fill="#1F304C"/>
<path d="M136.224 13.816C136.224 8.624 139.744 5.632 143.528 5.632C144.577 5.61732 145.614 5.85799 146.549 6.33324C147.484 6.80849 148.29 7.50407 148.896 8.36V0H152.504V21.648H148.896V19.008C148.315 19.9015 147.519 20.6352 146.581 21.1424C145.644 21.6497 144.594 21.9142 143.528 21.912C139.832 22 136.224 19.008 136.224 13.816ZM148.896 13.816C148.896 10.736 146.784 8.8 144.32 8.8C141.856 8.8 139.832 10.736 139.832 13.816V13.904C139.832 16.896 141.944 18.92 144.32 18.92C145.604 18.8496 146.807 18.2724 147.665 17.3153C148.523 16.3582 148.966 15.0995 148.896 13.816Z" fill="#1F304C"/>
<path d="M156.64 1.40799C156.639 1.60016 156.599 1.79014 156.522 1.96637C156.446 2.14261 156.334 2.30141 156.194 2.43312C156.054 2.56483 155.889 2.66669 155.708 2.73251C155.528 2.79833 155.336 2.82673 155.144 2.81599C154.76 2.82322 154.389 2.67994 154.109 2.41681C153.829 2.15368 153.664 1.79158 153.648 1.40799C153.648 1.01122 153.806 0.63071 154.086 0.350156C154.367 0.0696011 154.747 -0.0880127 155.144 -0.0880127C155.541 -0.0880127 155.921 0.0696011 156.202 0.350156C156.482 0.63071 156.64 1.01122 156.64 1.40799ZM154 1.40799C153.995 1.55954 154.021 1.71049 154.077 1.8515C154.133 1.99251 154.217 2.12058 154.324 2.2278C154.431 2.33503 154.559 2.41912 154.7 2.47488C154.841 2.53064 154.992 2.55688 155.144 2.55199C155.289 2.54749 155.431 2.51417 155.563 2.45398C155.695 2.3938 155.814 2.30795 155.912 2.20145C156.01 2.09495 156.086 1.96994 156.136 1.83371C156.185 1.69747 156.207 1.55275 156.2 1.40799C156.207 1.26323 156.185 1.1185 156.136 0.98227C156.086 0.846036 156.01 0.72102 155.912 0.614522C155.814 0.508023 155.695 0.422175 155.563 0.36199C155.431 0.301806 155.289 0.268489 155.144 0.263987C154.842 0.268529 154.554 0.390516 154.34 0.604081C154.126 0.817646 154.004 1.106 154 1.40799ZM154.88 2.19999H154.528V0.791987C154.87 0.674654 155.242 0.674654 155.584 0.791987C155.76 0.879987 155.76 0.967987 155.76 1.14399C155.76 1.31999 155.672 1.40799 155.496 1.49599C155.672 1.58399 155.76 1.67199 155.76 1.84799C155.76 2.02399 155.848 2.11199 155.848 2.19999H155.496C155.408 2.11199 155.408 2.02399 155.408 1.84799C155.412 1.8123 155.408 1.77611 155.396 1.74214C155.385 1.70818 155.365 1.67733 155.34 1.65192C155.315 1.6265 155.284 1.60718 155.25 1.59542C155.216 1.58365 155.18 1.57974 155.144 1.58399H154.968L154.88 2.19999ZM154.88 1.40799H155.056C155.232 1.40799 155.408 1.31999 155.408 1.23199C155.404 1.16333 155.375 1.09858 155.326 1.04995C155.277 1.00131 155.213 0.97216 155.144 0.967987H154.968L154.88 1.40799Z" fill="#1F304C"/>
</g>
<defs>
<clipPath id="clip0">
<rect width="156.64" height="22" fill="white"/>
</clipPath>
</defs>
</svg>
